libs/ui-component-library/src/lib/icons/sources/constrainChildTools.svg

<svg width="10" height="14" viewBox="0 0 10 14" fill="none" xmlns="http://www.w3.org/2000/svg">
<path d="M1.78315 13.3268C1.28671 13.3268 0.864319 13.1536 0.515986 12.8072C0.167764 12.4606 -0.00634766 12.0398 -0.00634766 11.5448C-0.00634766 11.1414 0.11543 10.7813 0.358986 10.4647C0.602541 10.148 0.910208 9.938 1.28199 9.83467V4.16534C0.910208 4.062 0.602541 3.852 0.358986 3.53534C0.11543 3.21867 -0.00634766 2.85862 -0.00634766 2.45517C-0.00634766 1.95839 0.167375 1.53612 0.514819 1.18834C0.862375 0.84056 1.28443 0.666672 1.78099 0.666672C2.27743 0.666672 2.69976 0.84056 3.04799 1.18834C3.39632 1.53612 3.57049 1.95839 3.57049 2.45517C3.57049 2.85862 3.44976 3.21867 3.20832 3.53534C2.96687 3.852 2.6581 4.062 2.28199 4.16534V4.40384C2.28199 4.98617 2.48393 5.48112 2.88782 5.88867C3.29171 6.29623 3.7821 6.5 4.35899 6.5H5.64099C6.49054 6.5 7.21465 6.80128 7.81332 7.40384C8.4121 8.00628 8.71149 8.73489 8.71149 9.58967V9.83467C9.0876 9.938 9.39743 10.1469 9.64099 10.4615C9.88454 10.7761 10.0063 11.1351 10.0063 11.5385C10.0063 12.0353 9.8311 12.4576 9.48065 12.8053C9.13032 13.153 8.70754 13.3268 8.21232 13.3268C7.7171 13.3268 7.29615 13.153 6.94949 12.8053C6.60282 12.4576 6.42949 12.0353 6.42949 11.5385C6.42949 11.1351 6.55021 10.7761 6.79165 10.4615C7.0331 10.1469 7.33971 9.938 7.71149 9.83467V9.58967C7.71149 9.01278 7.51021 8.52028 7.10765 8.11217C6.70499 7.70406 6.2161 7.5 5.64099 7.5H4.35899C3.94699 7.5 3.5641 7.42245 3.21032 7.26734C2.85643 7.11223 2.54699 6.90134 2.28199 6.63467V9.83467C2.6581 9.938 2.96687 10.1469 3.20832 10.4615C3.44976 10.7761 3.57049 11.1351 3.57049 11.5385C3.57049 12.0353 3.39671 12.4576 3.04915 12.8053C2.7016 13.153 2.2796 13.3268 1.78315 13.3268ZM1.78532 12.3333C2.00621 12.3333 2.19232 12.2578 2.34365 12.1067C2.49487 11.9557 2.57049 11.7685 2.57049 11.5452C2.57049 11.3218 2.49493 11.1346 2.34382 10.9833C2.19271 10.832 2.00543 10.7563 1.78199 10.7563C1.56321 10.7563 1.3771 10.8331 1.22365 10.9865C1.07032 11.1399 0.993652 11.3261 0.993652 11.5448C0.993652 11.7636 1.07032 11.9497 1.22365 12.1032C1.3771 12.2566 1.56432 12.3333 1.78532 12.3333ZM8.21465 12.3333C8.43565 12.3333 8.62176 12.2578 8.77299 12.1067C8.92432 11.9557 8.99999 11.7685 8.99999 11.5452C8.99999 11.3218 8.92443 11.1346 8.77332 10.9833C8.62221 10.832 8.43493 10.7563 8.21149 10.7563C7.99271 10.7563 7.8066 10.8331 7.65315 10.9865C7.49971 11.1399 7.42299 11.3261 7.42299 11.5448C7.42299 11.7636 7.49971 11.9497 7.65315 12.1032C7.8066 12.2566 7.99376 12.3333 8.21465 12.3333ZM1.78532 3.24367C2.00621 3.24367 2.19232 3.16812 2.34365 3.01701C2.49487 2.86601 2.57049 2.67884 2.57049 2.45551C2.57049 2.23217 2.49493 2.04489 2.34382 1.89367C2.19271 1.74234 2.00543 1.66667 1.78199 1.66667C1.56321 1.66667 1.3771 1.74339 1.22365 1.89684C1.07032 2.05028 0.993652 2.23639 0.993652 2.45517C0.993652 2.67395 1.07032 2.86006 1.22365 3.0135C1.3771 3.16695 1.56432 3.24367 1.78532 3.24367Z" fill="#A5A8AB"/>
</svg>

<svg xmlns="http://www.w3.org/2000/svg" width="10" height="14" fill="none" viewBox="0 -2 10 20">
  <path fill="currentColor" d="M1.783 13.327a1.73 1.73 0 0 1-1.267-.52 1.715 1.715 0 0 1-.522-1.262c0-.404.121-.764.365-1.08.244-.317.551-.527.923-.63v-5.67a1.722 1.722 0 0 1-.923-.63 1.725 1.725 0 0 1-.365-1.08c0-.497.173-.919.52-1.267.348-.347.77-.521 1.267-.521.496 0 .919.174 1.267.521.348.348.522.77.522 1.267 0 .404-.12.764-.362 1.08a1.7 1.7 0 0 1-.926.63v.239c0 .582.202 1.077.606 1.485.404.407.894.611 1.471.611h1.282c.85 0 1.574.301 2.172.904.6.602.898 1.33.898 2.186v.245c.377.103.686.312.93.626.244.315.365.674.365 1.078 0 .496-.175.919-.525 1.266-.35.348-.773.522-1.269.522-.495 0-.916-.174-1.263-.522a1.727 1.727 0 0 1-.52-1.266c0-.404.121-.763.363-1.078a1.71 1.71 0 0 1 .92-.626V9.59a2.03 2.03 0 0 0-.604-1.478A1.983 1.983 0 0 0 5.64 7.5H4.359c-.412 0-.795-.078-1.149-.233a2.984 2.984 0 0 1-.928-.632v3.2c.376.103.685.312.926.626.242.315.362.674.362 1.078 0 .496-.173.919-.52 1.266-.348.348-.77.522-1.267.522Zm.002-.994a.76.76 0 0 0 .559-.226.762.762 0 0 0 .226-.562.763.763 0 0 0-.226-.562.763.763 0 0 0-.562-.227.76.76 0 0 0-.558.23.76.76 0 0 0-.23.559.76.76 0 0 0 .23.558.76.76 0 0 0 .561.23Zm6.43 0a.76.76 0 0 0 .558-.226.762.762 0 0 0 .227-.562.763.763 0 0 0-.227-.562.763.763 0 0 0-.562-.227.76.76 0 0 0-.558.23.76.76 0 0 0-.23.559.76.76 0 0 0 .23.558c.154.154.34.23.562.23Zm-6.43-9.09a.76.76 0 0 0 .559-.226.762.762 0 0 0 .226-.561.763.763 0 0 0-.226-.562.762.762 0 0 0-.562-.227.76.76 0 0 0-.558.23.76.76 0 0 0-.23.558.76.76 0 0 0 .23.558.76.76 0 0 0 .561.23Z"/>
</svg>
